X: 12488
T: Farewell To Erin
R: reel
M: 4/4
K: Dmajor
D2 F/E/D ADFD|Ad d/d/c de f2|D2 F/E/D ADFA|BdAF ~E3F|
D2 F/E/D ADFD|Ad d/d/c defe|d3c BdAd|B/d/B AF EGFE|
D2 F/E/D ADFD|Ad d/d/c de f2|D2 F/E/D ADFA|BdAF EGFE|
D2 F/E/D ADFD|Ad d/d/c defe|dB{d}BA BdAd|B/c/d AF Egfe||
d2 Bd AF F/F/F|DFAF BFAF|dABd A~F3|DE{G}ED E/E/E FA|
d2 cA B2 dc|BAAF ABdg|faec dBcA|B~F3 EDEc|
d2 Bd AF F/F/F|DFAF BFAF|dABd A~F3|DE{G}ED EABc|
d2 cd ~B3c|BAA^G ABdg|faec dBcA|BF F/F/F EDEF||

